!!!!SEGMENT: pl-cz--iii-555--001-004_raszek-waclaw--requiem-qui-mariam.krn
!!!cenid: 17xx:1083
!!!COM: Raszek, Wacław
!!!COM-rismid: pe30020314
!!!CDT: <1848->1848
!!!CNT:
!!!OPR: Requiem
!!!OTL: Qui Mariam
!!!OMV: 004
!!!PDT:
!!!AGN: Sacred; Requiem
!!!SMS-siglum: PL-CZ
!!!SMS-shelfmark: III-555
!!!SMS-shelfwork: 001-004 M
!!!SMS-variant:
!!!SMS-altvar:
!!!NIFC-rismid: 300001055
!!!system-decoration: [(s1,s2,s3)][(s4,s5)][(s6,s7,s8,s9)]
!!!key:
**kern	**text	**dynam	**kern	**text	**kern	**text	**kern	**text	**kern	**dynam	**kern	**dynam	**kern	**dynam	**kern	**dynam	**kern
*part9	*part9	*part9	*part8	*part8	*part7	*part7	*part6	*part6	*part5	*part5	*part4	*part4	*part3	*part3	*part2	*part2	*part1
*staff9	*staff9	*	*staff8	*staff8	*staff7	*staff7	*staff6	*staff6	*staff5	*	*staff4	*	*staff3	*	*staff2	*	*staff1
*Ibass	*	*	*Itenor	*	*Ialto	*	*Ivox	*	*Icor	*	*Iempty	*	*Iempty	*	*Iclars	*	*Iclars
*I"Basso.	*	*	*I"Tenore.	*	*I"Alto	*	*I"Canto	*	*I"Corno 2do in Dis	*	*I"Corno 1mo in dis	*	*I"Fagotto vel Violone	*	*I"Clarinetto 2do in B	*	*I"Clarinetto 1mo in B
*I'B.	*	*	*I'T.	*	*I'A.	*	*I'C.	*	*I'C. II	*	*I'C. I	*	*I'Fag. vel Violone	*	*I'Cl. II	*	*I'Cl. I
*clefF4	*	*	*clefC4	*	*clefC3	*	*clefC1	*	*clefG2	*	*clefG2	*	*clefF4	*	*clefG2	*	*clefG2
*	*	*	*	*	*	*	*	*	*ITrd5c9	*	*ITrd5c9	*	*	*	*ITrd1c2	*	*ITrd1c2
*k[b-e-a-]	*	*	*k[b-e-a-]	*	*k[b-e-a-]	*	*k[b-e-a-]	*	*k[b-e-a-]	*	*k[b-e-a-]	*	*k[b-e-a-]	*	*k[b-e-a-]	*	*k[b-e-a-]
*E-:	*	*	*E-:	*	*E-:	*	*E-:	*	*E-:	*	*E-:	*	*E-:	*	*E-:	*	*E-:
*M3/4	*	*	*M3/4	*	*M3/4	*	*M3/4	*	*M3/4	*	*M3/4	*	*M3/4	*	*M3/4	*	*M3/4
=1	=1	=1	=1	=1	=1	=1	=1	=1	=1	=1	=1	=1	=1	=1	=1	=1	=1
*2\right	*	*	*2\right	*	*2\right	*	*2\right	*	*2\right	*	*2\right	*	*2\right	*	*2\right	*	*
!	!	!	!	!	!	!	!	!	!	!	!	!	!	!	!LO:TX:t=P:problem=all\right&colon; global	!	!LO:TX:t=P:problem=w źródle brakująca partia Clarinetto 1mo
!LO:TX:a:Bi:t=ada&colon;	!	!	!	!	!LO:TX:a:Bi:t=adagi(o).	!	!	!	!LO:TX:a:Bi:t=Adagio	!	!LO:TX:a:Bi:t=adagio	!	!LO:TX:a:Bi:t=adagio	!	!LO:TX:a:Bi:t=Adagio	!	!
4E-\	Qui	.	2B-\	Qui	2g\	Qui	2ee-\	Qui	2G/	.	2e-\	.	4E-\	.	4g\	.	2.ryy
4G\	.	.	.	.	.	.	.	.	.	.	.	.	4G\	.	4b-\	.	.
4E-\	Ma-	.	4B-\	Ma-	4g\	Ma-	4ee-\	Ma-	4e-\	.	4g\	.	4E-\	.	4g\	.	.
=2	=2	=2	=2	=2	=2	=2	=2	=2	=2	=2	=2	=2	=2	=2	=2	=2	=2
4B-\	-ri-	.	2B-\	-ri-	4g\	-ri-	4ee-\	-ri-	4e-\	.	4g\	.	4B-\	.	4g/	.	2.ryy
4BB-/	-am	.	.	.	4f\	.	4dd\	.	4B-/	.	4f\	.	4BB-/	.	4f/	.	.
4r	.	.	4c\	-am	4a-\	-am	4cc\	-am	4r	.	4r	.	4r	.	4g/	.	.
=3	=3	=3	=3	=3	=3	=3	=3	=3	=3	=3	=3	=3	=3	=3	=3	=3	=3
2BB-/	ab-	.	4c\	ab-	4a-\	ab-	4cc\	ab-	4B-/	.	4f\	.	2BB-/	.	4a-/	.	2.ryy
.	.	.	4B-\	.	4g\	.	4b-\	.	4r	.	4r	.	.	.	4g/	.	.
4BB-/	-sol-	.	4B-\	-sol-	4f\	-sol-	4a-\	-sol-	4r	.	4r	.	4r	.	4f/	.	.
=4	=4	=4	=4	=4	=4	=4	=4	=4	=4	=4	=4	=4	=4	=4	=4	=4	=4
2.BB-/	-vi-	.	2.B-\	-vi-	2.f\	-vi-	2.a-\	-vi-	4B-/	.	4f\	.	4BB-/	.	2.f/	.	2.ryy
.	.	.	.	.	.	.	.	.	4B-/	.	4f\	.	4D/	.	.	.	.
.	.	.	.	.	.	.	.	.	4B-/	.	4f\	.	4BB-/	.	.	.	.
=5	=5	=5	=5	=5	=5	=5	=5	=5	=5	=5	=5	=5	=5	=5	=5	=5	=5
4E-\	-sti	.	4B-\	-sti	4e-\	-sti	4g\	-sti	4e-\	.	4g\	.	4E-\	.	8e-/L	.	2.ryy
.	.	.	.	.	.	.	.	.	.	.	.	.	.	.	8B-/	.	.
4r	.	.	4r	.	4r	.	4r	.	4G/	.	4e-\	.	4G\	.	8G/	.	.
.	.	.	.	.	.	.	.	.	.	.	.	.	.	.	8B-/	.	.
4r	.	.	4r	.	4r	.	4r	.	4G/	.	4e-\	.	4E-\	.	8G/	.	.
.	.	.	.	.	.	.	.	.	.	.	.	.	.	.	8B-/J	.	.
=6	=6	=6	=6	=6	=6	=6	=6	=6	=6	=6	=6	=6	=6	=6	=6	=6	=6
!LO:TX:a:t=1	!	!	!LO:TX:a:t=1	!	!LO:TX:a:t=3	!	!	!	!	!	!	!	!	!	!	!	!
2.r	.	.	2.r	.	2.r	.	2.r	.	2B-/	.	4.f\	.	4B-\	.	8d/L	.	2.ryy
.	.	.	.	.	.	.	.	.	.	.	.	.	.	.	8B-/	.	.
.	.	.	.	.	.	.	.	.	.	.	.	.	4BB-/	.	8d/	.	.
.	.	.	.	.	.	.	.	.	.	.	16g\LL	.	.	.	8f/J	.	.
.	.	.	.	.	.	.	.	.	.	.	16a-\JJ	.	.	.	.	.	.
.	.	.	.	.	.	.	.	.	4e-\	.	4g\	.	4E-\	.	4e-/	.	.
=7	=7	=7	=7	=7	=7	=7	=7	=7	=7	=7	=7	=7	=7	=7	=7	=7	=7
4BB-/	et	.	4d\	Et	2.r	.	4ff\	et	2BB-/	.	2B-/	.	2BB-/	.	4dd\	.	2.ryy
4r	.	.	4e-\	.	.	.	4gg\	.	.	.	.	.	.	.	4ee-\	.	.
4B-\	La-	.	4c\	La-	.	.	4ee-\	La-	4r	.	4r	.	4r	.	4cc\	.	.
=8	=8	=8	=8	=8	=8	=8	=8	=8	=8	=8	=8	=8	=8	=8	=8	=8	=8
4B-\	-tro-	.	4B-\	-tro-	2.r	.	4dd\	-tro-	2BB-/	.	2B-/	.	2.BB-/	.	4b-\	.	2.ryy
4BB-/	-nem	.	4c\	.	.	.	4ee-\	.	.	.	.	.	.	.	4cc\	.	.
4r	.	.	4d\	-nem	.	.	4ff\	-nem	4r	.	4r	.	.	.	4dd\	.	.
=9	=9	=9	=9	=9	=9	=9	=9	=9	=9	=9	=9	=9	=9	=9	=9	=9	=9
4r	.	.	4r	.	4r	.	4gg\	ex-	4r	.	4r	.	4r	.	4ee-\	.	2.ryy
4E-\	ex	.	4c\	ex	4g\	et	4ee-\	.	4e-\	.	4g\	.	4E-\	.	4g/	.	.
4E-\	au-	.	4c\	eu-	4g\	La-	4cc\	-au-	4e-\	.	4g\	.	4E-\	.	4g/	.	.
=10	=10	=10	=10	=10	=10	=10	=10	=10	=10	=10	=10	=10	=10	=10	=10	=10	=10
2.F\	-disti	.	2.c\	-di-	2.e-\	-tro-	2.an\	-di-	2.f\	.	2.f\	.	4F\	.	8c/L	.	2.ryy
.	.	.	.	.	.	.	.	.	.	.	.	.	.	.	8e-/	.	.
.	.	.	.	.	.	.	.	.	.	.	.	.	4FF/	.	8f/	.	.
.	.	.	.	.	.	.	.	.	.	.	.	.	.	.	8e-/	.	.
.	.	.	.	.	.	.	.	.	.	.	.	.	4F\	.	8c/	.	.
.	.	.	.	.	.	.	.	.	.	.	.	.	.	.	8e-/J	.	.
=11	=11	=11	=11	=11	=11	=11	=11	=11	=11	=11	=11	=11	=11	=11	=11	=11	=11
2.B-\	mi-	.	2.d\	-sti	2.d\	-nem	2.b-\	-sti	4B-/	.	4f\	.	4BB-/	.	8B-/L	.	2.ryy
.	.	.	.	.	.	.	.	.	.	.	.	.	.	.	8d/	.	.
.	.	.	.	.	.	.	.	.	4B-/	.	4f\	.	4B-\	.	8f/	.	.
.	.	.	.	.	.	.	.	.	.	.	.	.	.	.	8d/	.	.
.	.	.	.	.	.	.	.	.	4B-/	.	4f\	.	4BB-/	.	8f/	.	.
.	.	.	.	.	.	.	.	.	.	.	.	.	.	.	8d/J	.	.
=12	=12	=12	=12	=12	=12	=12	=12	=12	=12	=12	=12	=12	=12	=12	=12	=12	=12
*	*	*	*	*ij	*	*	*	*ij	*	*	*	*	*	*	*	*	*
4F\	-hi	.	4An\	ex	4r	.	4cc\	ex	4f\	.	4f\	.	4F\	.	4a\	.	2.ryy
4r	.	.	4B-\	.	4f\	ex	4dd\	.	4r	.	4r	.	4r	.	4b-\	.	.
4F\	quo-	.	4c\	au-	4f\	au-	4ee-\	au-	4r	.	4r	.	4r	.	4cc\	.	.
=13	=13	=13	=13	=13	=13	=13	=13	=13	=13	=13	=13	=13	=13	=13	=13	=13	=13
4F\	-que	.	2.c\	-di-	2.f\	-di-	2.ee-\	-di-	4f\	.	4f\	.	4F\	.	2.cc\	.	2.ryy
4An\	.	.	.	.	.	.	.	.	4f\	.	4f\	.	4An\	.	.	.	.
4F\	.	.	.	.	.	.	.	.	4f\	.	4f\	.	4F\	.	.	.	.
=14	=14	=14	=14	=14	=14	=14	=14	=14	=14	=14	=14	=14	=14	=14	=14	=14	=14
4B-\	.	.	4B-\	-sti	4f\	-sti	4dd\	-sti	4B-/	.	4f\	.	4B-\	.	4b-\	.	2.ryy
*	*	*	*	*Xij	*	*	*	*Xij	*	*	*	*	*	*	*	*	*
4r	.	.	4r	.	4r	.	4r	.	4r	.	4r	.	4BB-/	.	4dd\	.	.
4r	.	.	4r	.	4r	.	4r	.	4r	.	4r	.	4r	.	4b-\	.	.
=15	=15	=15	=15	=15	=15	=15	=15	=15	=15	=15	=15	=15	=15	=15	=15	=15	=15
!	!	!	!	!	!	!	!	!	!	!LO:DY:a	!	!LO:DY:a	!	!	!	!	!
2.E-\	mi-	p	2.B-\	.	2.g\	mi-	2.cc\	mi-	4B-/	p	4B-/	p	4E-\	.	4r	.	2.ryy
!	!	!	!	!	!	!	!	!	!	!	!	!	!	!	!	!LO:DY:a	!
.	.	.	.	.	.	.	.	.	4r	.	4r	.	4r	.	4b-\	p	.
.	.	.	.	.	.	.	.	.	4r	.	4r	.	4E-\	.	4b-\	.	.
=16	=16	=16	=16	=16	=16	=16	=16	=16	=16	=16	=16	=16	=16	=16	=16	=16	=16
!	!	!	!	!	!	!	!LO:SIC:v:l:s=hi	!	!	!	!	!	!	!	!	!	!
2.F\	-hi	.	2.B-\	Mi	2.f\	-hi	2.dd\	-chi	4B-/	.	4B-/	.	4r	.	4r	.	2.ryy
.	.	.	.	.	.	.	.	.	4r	.	4r	.	4F\	.	4b-\	.	.
.	.	.	.	.	.	.	.	.	4r	.	4r	.	4F\	.	4b-\	.	.
=17	=17	=17	=17	=17	=17	=17	=17	=17	=17	=17	=17	=17	=17	=17	=17	=17	=17
!	!	!	!LO:SIC:v:l:s=hi	!	!	!	!	!	!	!	!	!	!	!	!	!	!
2.G\	quo-	.	2.B-\	chi	2.g\	quo-	2.ee-X\	quo-	4B-/	.	4B-/	.	4r	.	4r	.	2.ryy
.	.	.	.	.	.	.	.	.	4r	.	4r	.	4G\	.	4b-\	.	.
.	.	.	.	.	.	.	.	.	4r	.	4r	.	4G\	.	4b-\	.	.
=18	=18	=18	=18	=18	=18	=18	=18	=18	=18	=18	=18	=18	=18	=18	=18	=18	=18
!	!	!	!	!	!	!	!	!	!LO:TX:a:t=1.	!	!LO:TX:a:t=1	!	!	!	!	!	!
2.G\	.	.	2.c\	quo-	2.b-\	.	2.een\	-que	2.r	.	2.r	.	4r	.	4r	.	2.ryy
.	.	.	.	.	.	.	.	.	.	.	.	.	4G\	.	4b-\	.	.
.	.	.	.	.	.	.	.	.	.	.	.	.	4G\	.	4b-\	.	.
=19	=19	=19	=19	=19	=19	=19	=19	=19	=19	=19	=19	=19	=19	=19	=19	=19	=19
!	!	!	!	!	!	!	!	!	!	!	!	!	!	!	!	!LO:DY:a	!
4F\	-que	.	4c\	-que	4an\	que	4ff\	spem	4f\	.	4f\	.	4F\	.	4a\	f	2.ryy
4r	.	.	4c\	.	4r	.	4ee-X\	.	4r	.	4r	.	4r	.	4cc\	.	.
4r	.	.	4c\	.	4r	.	4ee-\	de-	4r	.	4r	.	4r	.	4cc\	.	.
=20	=20	=20	=20	=20	=20	=20	=20	=20	=20	=20	=20	=20	=20	=20	=20	=20	=20
!	!	!	!	!	!	!	!	!	!	!LO:DY:a	!	!	!	!	!	!	!
4G\	mi-	.	4.c\	spem	4r	.	4.ee-\	-di-	4f\	f	4f\	.	4F\	.	4.cc\	.	2.ryy
4An\	.	.	.	.	4f\	mi-	.	.	4f\	.	4f\	.	4An\	.	.	.	.
.	.	.	8d\	.	.	.	8ff\	.	.	.	.	.	.	.	8dd\	.	.
4F\	-hi	.	4c\	.	4f\	-hi	4ee-\	-sti	4f\	.	4f\	.	4F\	.	4cc\	.	.
=21	=21	=21	=21	=21	=21	=21	=21	=21	=21	=21	=21	=21	=21	=21	=21	=21	=21
2B-\	quo-	.	4B-\	de-	4f\	quo-	4dd\	spem	4B-/	.	4f\	.	4B-\	.	4b-\	.	2.ryy
.	.	.	4c\	-di-	4e-\	.	4ee-\	.	4e-\	.	4e-\	.	4r	.	4cc\	.	.
4BB-/	-que	.	4d\	-sti	4d\	que	4ff\	de-	4B-/	.	4f\	.	4BB-/	.	4dd\	.	.
=22	=22	=22	=22	=22	=22	=22	=22	=22	=22	=22	=22	=22	=22	=22	=22	=22	=22
8E-\	spem	.	8e-\L	spem	8g\	spem	8gg\L	-di-	4e-\	.	4g\	.	4E-\	.	8ee-\L	.	2.ryy
8E-\	de-	.	8c\J	.	8g\	de-	8ee-\J	.	.	.	.	.	.	.	8cc\J	.	.
2F\	-di-	.	4B-\	de-	2f\	-di-	4dd\	.	4f\	.	4f\	.	4F\	.	4b-\	.	.
!	!	!	!	!	!	!	!	!	!	!	!	!	!	!	!LO:SIC:v:s=4a\	!	!
.	.	.	4An\	-di-	.	.	4cc\	.	4f\	.	4f\	.	4FF/	.	4a-\	.	.
=23	=23	=23	=23	=23	=23	=23	=23	=23	=23	=23	=23	=23	=23	=23	=23	=23	=23
4AA-/	-sti	.	4B-\	-sti	4e-\	-sti	4b-\	-sti	4B-/	.	4f\	.	4BB-/	.	4b-\	.	2.ryy
4r	.	.	4r	.	4r	.	4r	.	4r	.	4r	.	4r	.	8gg\L	.	.
.	.	.	.	.	.	.	.	.	.	.	.	.	.	.	8ff\	.	.
4r	.	.	4r	.	4r	.	4r	.	4r	.	4r	.	4r	.	8ee-\	.	.
.	.	.	.	.	.	.	.	.	.	.	.	.	.	.	8dd\J	.	.
=24	=24	=24	=24	=24	=24	=24	=24	=24	=24	=24	=24	=24	=24	=24	=24	=24	=24
!LO:TX:a:t=1	!	!	!LO:TX:a:t=1	!	!	!	!LO:TX:a:t=1	!	!LO:TX:a:t=1.	!	!LO:TX:a:t=1.	!	!	!	!	!	!
2.r	.	.	2.r	.	2.r	.	2.r	.	2.r	.	2.r	.	4B-\	.	4dd\	.	2.ryy
.	.	.	.	.	.	.	.	.	.	.	.	.	4BB-/	.	8b-\L	.	.
.	.	.	.	.	.	.	.	.	.	.	.	.	.	.	8cc\	.	.
.	.	.	.	.	.	.	.	.	.	.	.	.	4r	.	8cc\	.	.
.	.	.	.	.	.	.	.	.	.	.	.	.	.	.	8dd\J	.	.
=25	=25	=25	=25	=25	=25	=25	=25	=25	=25	=25	=25	=25	=25	=25	=25	=25	=25
4r	.	.	2c\	spem	2g\	spem	4gg\	spem	4r	.	4r	.	2E-\	.	4ee-\	.	2.ryy
4E-\	Spem	.	.	.	.	.	4ee-\	.	4e-\	.	4g\	.	.	.	4g\	.	.
4E-\	de-	.	4c\	de-	4g\	de-	4cc\	de-	4e-\	.	4g\	.	4E-\	.	4e-/	.	.
=26	=26	=26	=26	=26	=26	=26	=26	=26	=26	=26	=26	=26	=26	=26	=26	=26	=26
2.F\	-di-	.	2.d\	-di-	2.f\	-di-	2.cc\	-di-	2.f\	.	2.f\	.	4F\	.	8d/L	.	2.ryy
.	.	.	.	.	.	.	.	.	.	.	.	.	.	.	8f/	.	.
.	.	.	.	.	.	.	.	.	.	.	.	.	4F\	.	8d/	.	.
.	.	.	.	.	.	.	.	.	.	.	.	.	.	.	8f/	.	.
.	.	.	.	.	.	.	.	.	.	.	.	.	4F\	.	8d/	.	.
.	.	.	.	.	.	.	.	.	.	.	.	.	.	.	8f/J	.	.
=27	=27	=27	=27	=27	=27	=27	=27	=27	=27	=27	=27	=27	=27	=27	=27	=27	=27
2.F\	.	.	2.c\	.	2.f\	.	2.an\	.	4f\	.	4f\	.	4FF/	.	8e-/L	.	2.ryy
.	.	.	.	.	.	.	.	.	.	.	.	.	.	.	8f/	.	.
.	.	.	.	.	.	.	.	.	4f\	.	4f\	.	4FF/	.	8e-/	.	.
.	.	.	.	.	.	.	.	.	.	.	.	.	.	.	8f/	.	.
.	.	.	.	.	.	.	.	.	4f\	.	4f\	.	4FF/	.	8e-/	.	.
.	.	.	.	.	.	.	.	.	.	.	.	.	.	.	8f/J	.	.
=28	=28	=28	=28	=28	=28	=28	=28	=28	=28	=28	=28	=28	=28	=28	=28	=28	=28
4BB-/	-sti	.	4d\	-sti	4f\	-sti	4b-\	-sti	2A-/	.	2f\	.	4BB-/	.	4d/	.	2.ryy
4r	.	.	4r	.	4r	.	4r	.	.	.	.	.	8B-\L	.	4d/	.	.
.	.	.	.	.	.	.	.	.	.	.	.	.	8A-\	.	.	.	.
4r	.	.	4r	.	4r	.	4r	.	4r	.	4r	.	8G\	.	4r	.	.
.	.	.	.	.	.	.	.	.	.	.	.	.	8F\J	.	.	.	.
=29	=29	=29	=29	=29	=29	=29	=29	=29	=29	=29	=29	=29	=29	=29	=29	=29	=29
!	!	!	!	!	!	!	!	!	!LO:TX:a:t=5.	!	!LO:TX:a:t=5	!	!	!	!LO:TX:a:t=5	!	!
2E-\	pre-	.	2e-\	pre-	4g\	pre-	4b-\	pre-	0.r	.	0.r	.	2E-\	.	0.r	.	2.ryy
.	.	.	.	.	4e-\	.	4g\	.	.	.	.	.	.	.	.	.	.
4E-\	-ces	.	4e-\	-ces	4f\	-ces	4a-X\	-ces	.	.	.	.	4r	.	.	.	.
=30	=30	=30	=30	=30	=30	=30	=30	=30	=30	=30	=30	=30	=30	=30	=30	=30	=30
2E-\	me	.	2e-\	me	4g\	me	4b-\	me	.	.	.	.	2E-\	.	.	.	2.ryy
.	.	.	.	.	4a-\	.	4cc\	.	.	.	.	.	.	.	.	.	.
4BB-/	.	.	4B-\	.	4f\	.	4dd\	.	.	.	.	.	4r	.	.	.	.
=31	=31	=31	=31	=31	=31	=31	=31	=31	=31	=31	=31	=31	=31	=31	=31	=31	=31
2E-\	non	.	2B-\	non	2g\	non	2ee-\	non	.	.	.	.	2E-\	.	.	.	2.ryy
4E-\	sunt	.	4c\	sunt	4a-\	sunt	4cc\	sunt	.	.	.	.	4r	.	.	.	.
=32	=32	=32	=32	=32	=32	=32	=32	=32	=32	=32	=32	=32	=32	=32	=32	=32	=32
2.E-\	Di-	.	2.e-\	di-	2.a-\	di-	2cc\	di-	.	.	.	.	4AA-/	.	.	.	2.ryy
.	.	.	.	.	.	.	.	.	.	.	.	.	4A-\	.	.	.	.
.	.	.	.	.	.	.	8ee-\L	.	.	.	.	.	4AA-/	.	.	.	.
.	.	.	.	.	.	.	8cc\J	.	.	.	.	.	.	.	.	.	.
=33	=33	=33	=33	=33	=33	=33	=33	=33	=33	=33	=33	=33	=33	=33	=33	=33	=33
!	!	!	!	!	!	!	!LO:SIC:v:l:s=gnae	!	!	!	!	!	!	!	!	!	!
2E-\	-gne	.	2e-\	-gne	2g\	-gne	2b-\	-gne	2.r	.	2.r	.	8E-\L	.	2.r	.	2.ryy
.	.	.	.	.	.	.	.	.	.	.	.	.	8G\	.	.	.	.
.	.	.	.	.	.	.	.	.	.	.	.	.	8B-\	.	.	.	.
.	.	.	.	.	.	.	.	.	.	.	.	.	8G\J	.	.	.	.
4r	.	.	4r	.	4r	.	4r	.	.	.	.	.	4E-\	.	.	.	.
=34	=34	=34	=34	=34	=34	=34	=34	=34	=34	=34	=34	=34	=34	=34	=34	=34	=34
2BB-/	sed	.	2B-\	sed	4f\	sed	4a-X\	sed	4f\	.	4a-\	.	2BB-/	.	4ff\	.	2.ryy
.	.	.	.	.	4d\	.	4f\	.	4B-/	.	4f\	.	.	.	4dd\	.	.
4BB-/	tu	.	4B-\	tu	4e-\	tu	4g\	tu	4e-\	.	4g\	.	4r	.	4ee-\	.	.
=35	=35	=35	=35	=35	=35	=35	=35	=35	=35	=35	=35	=35	=35	=35	=35	=35	=35
2BB-/	Bo-	.	2B-\	bo-	4f\	Bo-	4a-\	bo-	2f\	.	2a-\	.	2BB-/	.	4ff\	.	2.ryy
.	.	.	.	.	4a-\	.	4ff\	.	.	.	.	.	.	.	4dd\	.	.
4BB-/	-nus	.	4B-\	-nus	4f\	-nus	4dd\	-nus	4r	.	4r	.	4r	.	4b-\	.	.
=36	=36	=36	=36	=36	=36	=36	=36	=36	=36	=36	=36	=36	=36	=36	=36	=36	=36
2BB-/	fac	.	2B-\	fac	4a-\	fac	4ff\	fac	2B-/	.	2f\	.	2BB-/	.	4dd\	.	2.ryy
.	.	.	.	.	4f\	.	4dd\	.	.	.	.	.	.	.	4b-\	.	.
4D\	be-	.	4B-\	be-	4f\	be-	4a-\	be-	4f\	.	4a-\	.	4r	.	4f/	.	.
=37	=37	=37	=37	=37	=37	=37	=37	=37	=37	=37	=37	=37	=37	=37	=37	=37	=37
2.D\	-ni-	.	2.B-\	-ni-	2.f\	-ni-	2.a-\	-ni-	2.f\	.	2.a-\	.	4BB-/	.	2.f/	.	2.ryy
.	.	.	.	.	.	.	.	.	.	.	.	.	4D/	.	.	.	.
.	.	.	.	.	.	.	.	.	.	.	.	.	4BB-/	.	.	.	.
=38	=38	=38	=38	=38	=38	=38	=38	=38	=38	=38	=38	=38	=38	=38	=38	=38	=38
2E-\	-gne	.	2B-\	-gne	2e-\	-gne	2g\	-gne	4e-\	.	4g\	.	4E-\	.	2.e-/	.	2.ryy
.	.	.	.	.	.	.	.	.	4G/	.	4e-\	.	4BB-/	.	.	.	.
4r	.	.	4r	.	4r	.	4r	.	4G/	.	4e-\	.	4EE-/	.	.	.	.
=39	=39	=39	=39	=39	=39	=39	=39	=39	=39	=39	=39	=39	=39	=39	=39	=39	=39
*	*	*	*	*ij	*	*	*	*ij	*	*	*	*	*	*	*	*	*
2BB-/	sed	.	2F/	sed	2d\	sed	2b-\	sed	4B-/	.	4f\	.	4BB-/	.	2.d/	.	2.ryy
.	.	.	.	.	.	.	.	.	4r	.	4r	.	4r	.	.	.	.
4BB-/	tu	.	4F/	tu	4d\	tu	4b-\	tu	4r	.	4r	.	4r	.	.	.	.
=40	=40	=40	=40	=40	=40	=40	=40	=40	=40	=40	=40	=40	=40	=40	=40	=40	=40
2C/	bo-	.	2F/	bo-	2e-\	bo-	2an\	bo-	4f\	.	4f\	.	4C/	.	2.e-/	.	2.ryy
.	.	.	.	.	.	.	.	.	4r	.	4r	.	4r	.	.	.	.
4C/	-nus	.	4F/	-nus	4e-\	-nus	4a\	-nus	4r	.	4r	.	4r	.	.	.	.
=41	=41	=41	=41	=41	=41	=41	=41	=41	=41	=41	=41	=41	=41	=41	=41	=41	=41
!	!	!	!	!	!LO:TX:t=P:problem=w źródle skreślony tekst	!	!	!	!	!	!	!	!	!	!	!	!
2D\	fac	.	2B-\	fac	2f\	fac	2a-X\	fac	4B-/	.	4f\	.	4D\	.	2.f/	.	2.ryy
.	.	.	.	.	.	.	.	.	4r	.	4r	.	4r	.	.	.	.
!LO:TX:t=P:problem=w źródle błędna sylaba	!	!	!	!	!	!	!	!	!	!	!	!	!	!	!	!	!
4D\	mi	.	4B-\	be-	4f\	be-	4a-\	be-	4r	.	4r	.	4r	.	.	.	.
=42	=42	=42	=42	=42	=42	=42	=42	=42	=42	=42	=42	=42	=42	=42	=42	=42	=42
2.E-\	be-	.	2.B-\	-ni-	2.e-\	-ni-	2.g\	-ni-	4e-\	.	4g\	.	4E-\	.	2.B-/	.	2.ryy
.	.	.	.	.	.	.	.	.	4r	.	4r	.	4r	.	.	.	.
.	.	.	.	.	.	.	.	.	4r	.	4r	.	4r	.	.	.	.
=43	=43	=43	=43	=43	=43	=43	=43	=43	=43	=43	=43	=43	=43	=43	=43	=43	=43
4A-\	-ni-	.	4c\	-gne	4f\	-gne	4f/	-gne	4r	.	4r	.	4AA-/	.	4c/	.	2.ryy
*	*	*	*	*Xij	*	*	*	*Xij	*	*	*	*	*	*	*	*	*
4A-\	.	.	4c\	ne	4f\	sed	4ff\	ne	4f\	.	4f\	.	4A-\	.	4cc\	.	.
4A-\	-gne	.	4c\	pe-	4f\	tu	4ff\	pe-	4f\	.	4f\	.	4A-\	.	4cc\	.	.
=44	=44	=44	=44	=44	=44	=44	=44	=44	=44	=44	=44	=44	=44	=44	=44	=44	=44
2A-\	ne	.	2c\	-ren-	2f\	bo-	4ff\	-ren-	4f\	.	4f\	.	4A-\	.	2cc\	.	2.ryy
.	.	.	.	.	.	.	4aa-\	.	4r	.	4a-\	.	4AA-/	.	.	.	.
4A-\	pe-	.	4c\	-ni	4a-\	-nus	4ff\	-ni	4f\	.	4f\	.	4A-\	.	4a-\	.	.
=45	=45	=45	=45	=45	=45	=45	=45	=45	=45	=45	=45	=45	=45	=45	=45	=45	=45
2B-\	-re-	.	2B-\	Cre-	2g\	fac	2ee-\	Cre-	2.e-\	.	2.g\	.	4B-\	.	8g/L	.	2.ryy
.	.	.	.	.	.	.	.	.	.	.	.	.	.	.	8B-/	.	.
.	.	.	.	.	.	.	.	.	.	.	.	.	4B-\	.	8G/	.	.
.	.	.	.	.	.	.	.	.	.	.	.	.	.	.	8B-/	.	.
4B-\	-ni	.	4B-\	-mor	4g\	be-	4ee-\	-mor	.	.	.	.	4B-\	.	8G/	.	.
.	.	.	.	.	.	.	.	.	.	.	.	.	.	.	8B-/J	.	.
=46	=46	=46	=46	=46	=46	=46	=46	=46	=46	=46	=46	=46	=46	=46	=46	=46	=46
2.BB-/	cre-	.	2.B-\	i-	2.f\	-ni-	2.dd\	i-	4B-/	.	4f\	.	4BB-/	.	8A-/L	.	2.ryy
.	.	.	.	.	.	.	.	.	.	.	.	.	.	.	8B-/	.	.
.	.	.	.	.	.	.	.	.	4B-/	.	4f\	.	4BB-/	.	8A-/	.	.
.	.	.	.	.	.	.	.	.	.	.	.	.	.	.	8B-/	.	.
.	.	.	.	.	.	.	.	.	4B-/	.	4f\	.	4BB-/	.	8A-/	.	.
.	.	.	.	.	.	.	.	.	.	.	.	.	.	.	8B-/J	.	.
=47	=47	=47	=47	=47	=47	=47	=47	=47	=47	=47	=47	=47	=47	=47	=47	=47	=47
2E-\	-mor	.	2B-\	-gne	2g\	-gne	2ee-\	-gne	2A-/	.	2e-\	.	4E-\	.	4G/	.	2.ryy
.	.	.	.	.	.	.	.	.	.	.	.	.	4G\	.	4b-\	.	.
4r	.	.	4r	.	4r	.	4r	.	4e-\	.	4g\	.	4E-\	.	4g\	.	.
=48	=48	=48	=48	=48	=48	=48	=48	=48	=48	=48	=48	=48	=48	=48	=48	=48	=48
2BB-/	i-	.	2B-\	ne	4g\	ne	4ee-\	ne	4e-\	.	4g\	.	4B-\	.	(4g/	.	2.ryy
.	.	.	.	.	(4f\	pe-	(4dd\	pe-	4B-/	.	4f\	.	4BB-/	.	4f/)	.	.
4BB-/	.	.	4c\	pe-	4a-\)	.	4cc\)	.	4r	.	4r	.	4r	.	4a-\	.	.
=49	=49	=49	=49	=49	=49	=49	=49	=49	=49	=49	=49	=49	=49	=49	=49	=49	=49
2BB-/	.	.	4c\	-re-	(4a-\	-re-	(4cc\	-re-	4B-/	.	4f\	.	2BB-/	.	(4a-\	.	2.ryy
.	.	.	4B-\	.	4g\)	.	4b-\)	.	4r	.	4r	.	.	.	4g\)	.	.
4D\	.	.	4B-\	-ni	4f\	-ni	4a-\	-ni	4r	.	4r	.	4r	.	4f\	.	.
=50	=50	=50	=50	=50	=50	=50	=50	=50	=50	=50	=50	=50	=50	=50	=50	=50	=50
2.E-\	.	.	2.B-\	Cre-	(4e-\	cre-	4g\	Cre-	4e-\	.	4g\	.	4E-\	.	4e-/	.	2.ryy
.	.	.	.	.	4f\	.	4a-\	.	4f\	.	4a-\	.	4EE-/	.	4f/	.	.
.	.	.	.	.	4g\)	.	4b-\	.	4g\	.	4b-\	.	4r	.	4g/	.	.
=51	=51	=51	=51	=51	=51	=51	=51	=51	=51	=51	=51	=51	=51	=51	=51	=51	=51
4A-\	-gne	.	4A-\	-mor	4e-\	-mor	4cc\	-mor	4e-\	.	4e-\	.	4AA-/	.	4e-/	.	2.ryy
4r	.	.	4r	.	4r	.	4r	.	4r	.	4r	.	4A-\	.	4cc\	.	.
4r	.	.	4r	.	4r	.	4r	.	4f\	.	4a-\	.	4A-\	.	4a-/	.	.
=52	=52	=52	=52	=52	=52	=52	=52	=52	=52	=52	=52	=52	=52	=52	=52	=52	=52
2.B-\	i-	.	2.B-\	ig-	2.g\	i-	2.ee-\	ig-	2.e-\	.	2.g\	.	4B-\	.	2.g/	.	2.ryy
.	.	.	.	.	.	.	.	.	.	.	.	.	4B-\	.	.	.	.
.	.	.	.	.	.	.	.	.	.	.	.	.	4B-\	.	.	.	.
=53	=53	=53	=53	=53	=53	=53	=53	=53	=53	=53	=53	=53	=53	=53	=53	=53	=53
2.BB-/	.	.	2.B-\	.	2.f\	.	2.dd\	.	2.B-/	.	2.f\	.	4BB-/	.	2.f/	.	2.ryy
.	.	.	.	.	.	.	.	.	.	.	.	.	4BB-/	.	.	.	.
.	.	.	.	.	.	.	.	.	.	.	.	.	4BB-/	.	.	.	.
=54	=54	=54	=54	=54	=54	=54	=54	=54	=54	=54	=54	=54	=54	=54	=54	=54	=54
4E-\	-gne	.	4B-\	-ne	4g\	-gne	4ee-\	-ne	4e-\	.	4g\	.	4E-\	.	4g/	.	2.ryy
4r	.	.	4r	.	4r	.	4r	.	4r	.	4r	.	4r	.	2r	.	.
4r	.	.	4r	.	4r	.	4r	.	4r	.	4r	.	4r	.	.	.	.
=55	=55	=55	=55	=55	=55	=55	=55	=55	=55	=55	=55	=55	=55	=55	=55	=55	=55
!LO:TX:a:t=6	!	!	!LO:TX:a:t=6	!	!LO:TX:a:t=6	!	!LO:TX:a:t=6	!	!LO:TX:a:t=1.	!	!LO:TX:a:t=1.	!	!	!	!	!	!
0.r	.	.	0.r	.	0.r	.	0.r	.	2.r	.	2.r	.	2F\	.	2a-\	.	2.ryy
.	.	.	.	.	.	.	.	.	.	.	.	.	4F#X\	.	4e-/	.	.
=56	=56	=56	=56	=56	=56	=56	=56	=56	=56	=56	=56	=56	=56	=56	=56	=56	=56
.	.	.	.	.	.	.	.	.	2.G/	p	2.g\	.	4G\	.	4d/	.	2.ryy
!	!	!	!	!	!	!	!	!	!	!	!	!	!	!	!LO:TX:t=P:problem=zamazana nuta	!	!
.	.	.	.	.	.	.	.	.	.	.	.	.	4GG/	.	4BX/	.	.
.	.	.	.	.	.	.	.	.	.	.	.	.	4r	.	4d/	.	.
=57	=57	=57	=57	=57	=57	=57	=57	=57	=57	=57	=57	=57	=57	=57	=57	=57	=57
.	.	.	.	.	.	.	.	.	2.G/	.	2.g\	.	2GG/	.	4c/	.	2.ryy
.	.	.	.	.	.	.	.	.	.	.	.	.	.	.	4d/	.	.
.	.	.	.	.	.	.	.	.	.	.	.	.	4r	.	4e-/	.	.
=58	=58	=58	=58	=58	=58	=58	=58	=58	=58	=58	=58	=58	=58	=58	=58	=58	=58
!	!	!	!	!	!	!	!	!	!	!	!LO:TX:a:t=skan 0032	!	!	!	!	!	!
.	.	.	.	.	.	.	.	.	2.G/	.	2.g\	.	4GG/	.	4d/	.	2.ryy
.	.	.	.	.	.	.	.	.	.	.	.	.	4r	.	4BX/	.	.
.	.	.	.	.	.	.	.	.	.	.	.	.	4Bn\	.	4d/	.	.
=59	=59	=59	=59	=59	=59	=59	=59	=59	=59	=59	=59	=59	=59	=59	=59	=59	=59
1.r	.	.	1.r	.	1.r	.	1.r	.	2.G/	.	2.g\	.	4c\	.	4e-/	.	2.ryy
.	.	.	.	.	.	.	.	.	.	.	.	.	4B-\	.	4d/	.	.
.	.	.	.	.	.	.	.	.	.	.	.	.	4A-\	.	4c/	.	.
=60	=60	=60	=60	=60	=60	=60	=60	=60	=60	=60	=60	=60	=60	=60	=60	=60	=60
.	.	.	.	.	.	.	.	.	2G/	.	2g\	.	2G;\	.	2BX;/	.	2.ryy
.	.	.	.	.	.	.	.	.	4r	.	4r	.	4r	.	4r	.	.
=61||	=61||	=61||	=61||	=61||	=61||	=61||	=61||	=61||	=61||	=61||	=61||	=61||	=61||	=61||	=61||	=61||	=61||
*M2/2	*	*	*M2/2	*	*M2/2	*	*M2/2	*	*M2/2	*	*M2/2	*	*M2/2	*	*M2/2	*	*M2/2
*met(c|)	*	*	*met(c|)	*	*met(c|)	*	*met(c|)	*	*met(c|)	*	*met(c|)	*	*met(c|)	*	*met(c|)	*	*met(c|)
!LO:TX:a:Bi:t=adagi(o)&colon;	!	!	!LO:TX:a:Bi:t=adagio	!	!LO:TX:a:Bi:t=ada(gio)&colon;	!	!LO:TX:a:Bi:t=adagio	!	!LO:TX:a:Bi:t=Adagio	!	!LO:TX:a:Bi:t=Adagio	!	!LO:TX:a:Bi:t=adagio	!	!LO:TX:a:Bi:t=Adagio	!	!
!	!	!	!	!	!	!	!	!	!	!	!LO:TX:b:t=5	!	!	!	!	!	!
2.C/	La-	.	2.c\	La-	2g\	La-	2ee-\	La-	00r	.	00r	.	2C/	.	00r	.	1ryy
!	!	!	!	!	!LO:SIC:v:l:s=cri	!	!LO:SIC:v:l:s=cri	!	!	!	!	!	!	!	!	!	!
.	.	.	.	.	2g\	-chri-	2ee-\	-chri-	.	.	.	.	2c\	.	.	.	.
!LO:SIC:v:l:s=cri	!	!	!LO:SIC:v:l:s=cri	!	!	!	!	!	!	!	!	!	!	!	!	!	!
4C/	-chri-	.	4c\	-chri-	.	.	.	.	.	.	.	.	.	.	.	.	.
=62	=62	=62	=62	=62	=62	=62	=62	=62	=62	=62	=62	=62	=62	=62	=62	=62	=62
2C/	-mo-	.	2c\	-mo-	2g\	-mo-	2ee-\	-mo-	.	.	.	.	2c\	.	.	.	1ryy
2c\	-sa	.	2c\	-sa	2g\	-sa	2ee-\	-sa	.	.	.	.	2C/	.	.	.	.
=63	=63	=63	=63	=63	=63	=63	=63	=63	=63	=63	=63	=63	=63	=63	=63	=63	=63
2.B-\	Di-	.	2.c\	Di-	2.g\	Di-	2.ee-\	Di-	.	.	.	.	2.B-X\	.	.	.	1ryy
4B-\	-es	.	4c\	-es	4g\	-es	4een\	-es	.	.	.	.	4B-\	.	.	.	.
=64	=64	=64	=64	=64	=64	=64	=64	=64	=64	=64	=64	=64	=64	=64	=64	=64	=64
2A-\	il-	.	2c\	il-	2a-\	il-	2ff\	il-	.	.	.	.	2A-\	.	.	.	1ryy
2A-\	-la	.	2c\	-la	2a-\	-la	2ff\	-la	.	.	.	.	2AA-/	.	.	.	.
=65	=65	=65	=65	=65	=65	=65	=65	=65	=65	=65	=65	=65	=65	=65	=65	=65	=65
!LO:TX:a:t=1	!	!	!LO:TX:a:t=1	!	!LO:TX:a:t=1	!	!	!	!	!	!	!	!	!	!	!	!
1r	.	.	1r	.	1r	.	1r	.	1r	.	1r	.	4F\	.	4a-/	.	1ryy
.	.	.	.	.	.	.	.	.	.	.	.	.	4r	.	4r	.	.
.	.	.	.	.	.	.	.	.	.	.	.	.	2r	.	8a-/L	.	.
.	.	.	.	.	.	.	.	.	.	.	.	.	.	.	8g/	.	.
.	.	.	.	.	.	.	.	.	.	.	.	.	.	.	8f/	.	.
.	.	.	.	.	.	.	.	.	.	.	.	.	.	.	8e-/J	.	.
=66	=66	=66	=66	=66	=66	=66	=66	=66	=66	=66	=66	=66	=66	=66	=66	=66	=66
2.F\	Qua	.	2.d\	Qua	2.g\	Qua	2.bn\	Qua	4G/	.	4g\	.	4FF/	.	4d/	.	1ryy
.	.	.	.	.	.	.	.	.	4G/	.	4g\	.	4F\	.	4d/	.	.
.	.	.	.	.	.	.	.	.	4G/	.	4g\	.	4F\	.	4d/	.	.
4F\	re-	.	4d\	re-	4g\	re-	4b\	re-	4G/	.	4g\	.	4F\	.	4d/	.	.
=67	=67	=67	=67	=67	=67	=67	=67	=67	=67	=67	=67	=67	=67	=67	=67	=67	=67
2E-\	-sur-	.	2e-\	-sur-	2g\	-sur-	2cc\	-sur-	4G/	.	4g\	.	4E-\	.	4g/	.	1ryy
.	.	.	.	.	.	.	.	.	4G/	.	4g\	.	4E-\	.	4g/	.	.
2E-\	-get	.	2c\	-get	2g\	-get	2cc\	-get	4G/	.	4g\	.	4E-\	.	4g/	.	.
.	.	.	.	.	.	.	.	.	4G/	.	4g\	.	4E-\	.	4g/	.	.
=68	=68	=68	=68	=68	=68	=68	=68	=68	=68	=68	=68	=68	=68	=68	=68	=68	=68
2.BBn/	ex	.	2.d\	ex	2.g\	ex	2.ff\	ex	4G/	.	4g\	.	4BBn/	.	4g/	.	1ryy
.	.	.	.	.	.	.	.	.	4G/	.	4g\	.	4BB/	.	4g/	.	.
.	.	.	.	.	.	.	.	.	4G/	.	4g\	.	4BB/	.	4g/	.	.
4B-\	Fa-	.	4d\	Fa-	4g\	Fa-	8gg\L	Fa-	4G/	.	4g\	.	4BB/	.	4g/	.	.
.	.	.	.	.	.	.	8ff\J	.	.	.	.	.	.	.	.	.	.
=69	=69	=69	=69	=69	=69	=69	=69	=69	=69	=69	=69	=69	=69	=69	=69	=69	=69
2c\	-vil-	.	2d\	-vil-	2g\	-vil-	2ff\	-vil-	2G/	.	2g\	.	4C/	.	2g/	.	1ryy
.	.	.	.	.	.	.	.	.	.	.	.	.	4c\	.	.	.	.
2C/	-la	.	2c\	-la	2g\	-la	2ee-\	-la	2G/	.	2g\	.	4C/	.	2g/	.	.
.	.	.	.	.	.	.	.	.	.	.	.	.	4c\	.	.	.	.
=70	=70	=70	=70	=70	=70	=70	=70	=70	=70	=70	=70	=70	=70	=70	=70	=70	=70
2r	.	.	2r	.	2r	.	2r	.	2r	.	2r	.	2r	.	4c/	.	1ryy
.	.	.	.	.	.	.	.	.	.	.	.	.	.	.	4cc\	.	.
4c\	[ex	.	4c\	[ex	4g\	[ex	4ee-\	[ex	4G/	.	4g\	.	4E-\	.	4cc\	.	.
4C/	Fa-	.	4c\	Fa-	4g\	fa-	4ee-\	fa-	4G/	.	4g\	.	4C/	.	4cc\	.	.
=71	=71	=71	=71	=71	=71	=71	=71	=71	=71	=71	=71	=71	=71	=71	=71	=71	=71
2G\	-vil-	.	2c\	-vil-	2g\	-vil-	2ee-\	-vil-	2G/	.	2g\	.	2G\	.	2cc\	.	1ryy
2GG/	-la	.	2Bn\	-la]	2g\	-la]	2dd\	-la]	2G/	.	2g\	.	2GG/	.	2bX\	.	.
=72	=72	=72	=72	=72	=72	=72	=72	=72	=72	=72	=72	=72	=72	=72	=72	=72	=72
2.G\	ex	.	2.d\	Ju-	2.g\	Ju-	2.bn\	Ju-	2G/	.	2g\	.	4G\	.	4G/	.	1ryy
.	.	.	.	.	.	.	.	.	.	.	.	.	4GG/	.	4g/	.	.
.	.	.	.	.	.	.	.	.	4G/	.	4g\	.	4G\	.	4g/	.	.
4F\	Fa-	.	4d\	-di-	4g\	-di-	4b\	-di-	4G/	.	4g\	.	4F\	.	4g/	.	.
=73	=73	=73	=73	=73	=73	=73	=73	=73	=73	=73	=73	=73	=73	=73	=73	=73	=73
4E-\	-vil-	.	4c\	-can-	2g\	-can-	4cc\	-can-	2G/	.	2g\	.	4E-\	.	2g/	.	1ryy
4D\	.	.	4Bn\	.	.	.	4dd\	.	.	.	.	.	4D\	.	.	.	.
4C/	-la]	.	4c\	-ti	4g\	-ti	4ee-\	-ti	2r	.	2r	.	4C/	.	2g/	.	.
4r	.	.	4r	.	4r	.	4r	.	.	.	.	.	4E-\	.	.	.	.
=74	=74	=74	=74	=74	=74	=74	=74	=74	=74	=74	=74	=74	=74	=74	=74	=74	=74
2.F\	Ju-	.	2.c\	Ho-	2.f\	Ho-	2.an\	Ho-	4f\	.	4f\	.	4F\	.	4F/	.	1ryy
.	.	.	.	.	.	.	.	.	4f\	.	4f\	.	4FF/	.	4f/	.	.
.	.	.	.	.	.	.	.	.	4f\	.	4f\	.	4F\	.	4f/	.	.
4E-\	-di-	.	4c\	-mo	4f\	-mo	4a\	-mo	4f\	.	4f\	.	4E-\	.	4f/	.	.
=75	=75	=75	=75	=75	=75	=75	=75	=75	=75	=75	=75	=75	=75	=75	=75	=75	=75
4D/	-can-	.	4B-X\	re-	2f\	re-	4b-\	re-	2B-/	.	2f\	.	4D\	.	2f/	.	1ryy
4C/	.	.	4A-\	.	.	.	4cc\	.	.	.	.	.	4C\	.	.	.	.
4BB-/	-ti	.	4B-\	-us	4f\	-us	4dd\	-us	2r	.	2r	.	4BB-\	.	4f/	.	.
4r	.	.	4r	.	4r	.	4r	.	.	.	.	.	4r	.	4r	.	.
=76	=76	=76	=76	=76	=76	=76	=76	=76	=76	=76	=76	=76	=76	=76	=76	=76	=76
2D\	Ho-	.	2B-\	Ho-	2f\	Ho-	2ff\	Ho-	2B-/	.	2f\	.	2D\	.	2f/	.	1ryy
2E-\	-mo	.	2c\	-mo	2g\	-mo	8ee-\L	.	2e-\	.	2g\	.	2E-\	.	2g/	.	.
.	.	.	.	.	.	.	8dd\J	.	.	.	.	.	.	.	.	.	.
.	.	.	.	.	.	.	8cc\L	-mo	.	.	.	.	.	.	.	.	.
.	.	.	.	.	.	.	8b-\J	.	.	.	.	.	.	.	.	.	.
=77	=77	=77	=77	=77	=77	=77	=77	=77	=77	=77	=77	=77	=77	=77	=77	=77	=77
2F\	re-	.	2d\	re-	2f\	re-	2b-\	re-	2f\	.	2f\	.	4F\	.	2d/	.	1ryy
.	.	.	.	.	.	.	.	.	.	.	.	.	4FF/	.	.	.	.
2FF/	-us	.	2c\	-us	2f\	-us	2an\	-us	2f\	.	2f\	.	2F\	.	2c/	.	.
=78	=78	=78	=78	=78	=78	=78	=78	=78	=78	=78	=78	=78	=78	=78	=78	=78	=78
!	!	!	!	!	!	!	!	!	!LO:TX:a:t=2.	!	!LO:TX:a:t=2	!	!	!	!	!	!
1F	Ho-	.	1c	Hu-	1an	Hu-	1ff	Hu-	0r	.	0r	.	4r	.	8A/L	.	1ryy
.	.	.	.	.	.	.	.	.	.	.	.	.	.	.	8c/	.	.
.	.	.	.	.	.	.	.	.	.	.	.	.	4F\	.	8A/	.	.
.	.	.	.	.	.	.	.	.	.	.	.	.	.	.	8c/J	.	.
.	.	.	.	.	.	.	.	.	.	.	.	.	4FF/	.	8A/L	.	.
.	.	.	.	.	.	.	.	.	.	.	.	.	.	.	8c/	.	.
.	.	.	.	.	.	.	.	.	.	.	.	.	4F\	.	8A/	.	.
.	.	.	.	.	.	.	.	.	.	.	.	.	.	.	8c/J	.	.
=79	=79	=79	=79	=79	=79	=79	=79	=79	=79	=79	=79	=79	=79	=79	=79	=79	=79
1G	-mo-	.	1c	-ic	1b-	-ic	1een	-ic	.	.	.	.	4r	.	8B-/L	.	1ryy
.	.	.	.	.	.	.	.	.	.	.	.	.	.	.	8c/	.	.
.	.	.	.	.	.	.	.	.	.	.	.	.	4G\	.	8B-/	.	.
.	.	.	.	.	.	.	.	.	.	.	.	.	.	.	8c/J	.	.
.	.	.	.	.	.	.	.	.	.	.	.	.	4GG/	.	8B-/L	.	.
.	.	.	.	.	.	.	.	.	.	.	.	.	.	.	8c/	.	.
.	.	.	.	.	.	.	.	.	.	.	.	.	4G\	.	8B-/	.	.
.	.	.	.	.	.	.	.	.	.	.	.	.	.	.	8c/J	.	.
=80	=80	=80	=80	=80	=80	=80	=80	=80	=80	=80	=80	=80	=80	=80	=80	=80	=80
!	!	!	!	!	!	!	!	!	!	!	!	!	!	!	!LO:SIC:v:s=8A/L	!	!
1F	-re-	.	1c	er-	1an	er-	1ee-X	er-	4r	.	4r	.	4r	.	8A-/L	.	1ryy
.	.	.	.	.	.	.	.	.	.	.	.	.	.	.	8c/	.	.
!	!	!	!	!	!	!	!	!	!	!	!	!	!	!	!LO:SIC:v:s=8A/	!	!
.	.	.	.	.	.	.	.	.	4f\	.	4f\	.	4F\	.	8A-/	.	.
.	.	.	.	.	.	.	.	.	.	.	.	.	.	.	8c/J	.	.
!	!	!	!	!	!	!	!	!	!	!	!	!	!	!	!LO:SIC:v:s=8A/L	!	!
.	.	.	.	.	.	.	.	.	4f\	.	4f\	.	4FF/	.	8A-/L	.	.
.	.	.	.	.	.	.	.	.	.	.	.	.	.	.	8c/	.	.
!	!	!	!	!	!	!	!	!	!	!	!	!	!	!	!LO:SIC:v:s=8A/	!	!
.	.	.	.	.	.	.	.	.	4f\	.	4f\	.	4F\	.	8A-/	.	.
.	.	.	.	.	.	.	.	.	.	.	.	.	.	.	8c/J	.	.
=81	=81	=81	=81	=81	=81	=81	=81	=81	=81	=81	=81	=81	=81	=81	=81	=81	=81
1BB-	-us	.	1B-	-go	1b-	-go	1dd	-go	4r	.	4r	.	4r	.	4B-/	.	1ryy
.	.	.	.	.	.	.	.	.	4B-/	.	4f\	.	4BB-/	.	4f/	.	.
.	.	.	.	.	.	.	.	.	4B-/	.	4f\	.	4B-\	.	4f/	.	.
.	.	.	.	.	.	.	.	.	4B-/	.	4f\	.	4BB-/	.	4f/	.	.
=82	=82	=82	=82	=82	=82	=82	=82	=82	=82	=82	=82	=82	=82	=82	=82	=82	=82
2r	.	.	2r	.	2r	.	2r	.	1f	.	1f	.	4F\	.	8F/L	.	1ryy
.	.	.	.	.	.	.	.	.	.	.	.	.	.	.	8c/	.	.
!	!	!	!	!	!	!	!	!	!	!	!	!	!	!	!LO:SIC:v:s=8A/	!	!
.	.	.	.	.	.	.	.	.	.	.	.	.	4c\	.	8A-/	.	.
.	.	.	.	.	.	.	.	.	.	.	.	.	.	.	8c/J	.	.
4F\	Ho-	.	4c\	par-	4f\	par-	4ee-\	par-	.	.	.	.	4An\	.	8F/L	.	.
.	.	.	.	.	.	.	.	.	.	.	.	.	.	.	8c/	.	.
!	!	!	!	!	!	!	!	!	!	!	!	!	!	!	!LO:SIC:v:s=8A/	!	!
4F\	-mo	.	4c\	-ce	4f\	-ce	4ee-\	-ce	.	.	.	.	4F\	.	8A-/	.	.
.	.	.	.	.	.	.	.	.	.	.	.	.	.	.	8c/J	.	.
=83	=83	=83	=83	=83	=83	=83	=83	=83	=83	=83	=83	=83	=83	=83	=83	=83	=83
2B-\	re-	.	8B-\L	De-	2f\	De-	8dd\L	De-	4B-/	.	4f\	.	4B-\	.	8F/L	.	1ryy
.	.	.	8d\	.	.	.	8ff\	.	.	.	.	.	.	.	8d/	.	.
.	.	.	8e-\	.	.	.	8gg\	.	4r	.	4r	.	4F\	.	8e-/	.	.
.	.	.	8d\J	.	.	.	8ff\J	.	.	.	.	.	.	.	8d/J	.	.
4BB-/	-us	.	2d\	-us	4f\	-us	2ff\	-us	4B-/	.	4f\	.	4D\	.	8F/L	.	.
.	.	.	.	.	.	.	.	.	.	.	.	.	.	.	8d/	.	.
4r	.	.	.	.	4r	.	.	.	4B-/	.	4f\	.	4BB-/	.	8e-/	.	.
.	.	.	.	.	.	.	.	.	.	.	.	.	.	.	8d/J	.	.
=84	=84	=84	=84	=84	=84	=84	=84	=84	=84	=84	=84	=84	=84	=84	=84	=84	=84
*	*	*	*	*	*	*ij	*	*	*	*	*	*	*	*	*	*	*
2r	.	.	2r	.	1f	De-	2r	.	1f	.	1f	.	4FF/	.	8F/L	.	1ryy
!	!	!	!	!	!	!	!	!	!	!	!	!	!	!	!LO:SIC:v:s=8A/	!	!
.	.	.	.	.	.	.	.	.	.	.	.	.	.	.	8A-/	.	.
.	.	.	.	.	.	.	.	.	.	.	.	.	4F\	.	8c/	.	.
!	!	!	!	!	!	!	!	!	!	!	!	!	!	!	!LO:SIC:v:s=8A/J	!	!
.	.	.	.	.	.	.	.	.	.	.	.	.	.	.	8A-/J	.	.
*	*	*	*	*ij	*	*	*	*ij	*	*	*	*	*	*	*	*	*
2F\	Hu-	.	2c\	De-	.	.	2ee-\	De-	.	.	.	.	4FF/	.	8F/L	.	.
!	!	!	!	!	!	!	!	!	!	!	!	!	!	!	!LO:SIC:v:s=8A/	!	!
.	.	.	.	.	.	.	.	.	.	.	.	.	.	.	8A-/	.	.
.	.	.	.	.	.	.	.	.	.	.	.	.	4F\	.	8c/	.	.
!	!	!	!	!	!	!	!	!	!	!	!	!	!	!	!LO:SIC:v:s=8A/J	!	!
.	.	.	.	.	.	.	.	.	.	.	.	.	.	.	8A-/J	.	.
=85	=85	=85	=85	=85	=85	=85	=85	=85	=85	=85	=85	=85	=85	=85	=85	=85	=85
4BB-/	-ic	.	4B-\	-us	4f\	-us	4dd\	-us	4B-/	.	4f\	.	4BB-/	.	8F/L	.	1ryy
.	.	.	.	.	.	.	.	.	.	.	.	.	.	.	8d/	.	.
*	*	*	*	*Xij	*	*Xij	*	*Xij	*	*	*	*	*	*	*	*	*
4r	.	.	4r	.	4r	.	4r	.	4r	.	4r	.	4B-\	.	8e-/	.	.
.	.	.	.	.	.	.	.	.	.	.	.	.	.	.	8d/J	.	.
2r	.	.	2r	.	2r	.	2r	.	2r	.	2r	.	2r	.	4d/	.	.
.	.	.	.	.	.	.	.	.	.	.	.	.	.	.	4r	.	.
=86	=86	=86	=86	=86	=86	=86	=86	=86	=86	=86	=86	=86	=86	=86	=86	=86	=86
2.C/	er-	.	2.F/	par-	2.e-\	par-	2.an\	par-	4r	.	4r	.	4r	.	4r	.	1ryy
.	.	.	.	.	.	.	.	.	4f\	.	4f\	.	4C/	.	4e-/	.	.
.	.	.	.	.	.	.	.	.	4f\	.	4f\	.	4C/	.	4e-/	.	.
4C/	-go	.	4F/	-ce	4e-\	-ce	4a\	-ce	4f\	.	4f\	.	4C/	.	4e-/	.	.
=87	=87	=87	=87	=87	=87	=87	=87	=87	=87	=87	=87	=87	=87	=87	=87	=87	=87
1D	parce	.	1B-	De-	1f	De-	1a-X	De-	4r	.	4r	.	4r	.	4r	.	1ryy
.	.	.	.	.	.	.	.	.	4B-/	.	4f\	.	4D\	.	4f/	.	.
.	.	.	.	.	.	.	.	.	4B-/	.	4f\	.	4D\	.	4f/	.	.
.	.	.	.	.	.	.	.	.	4B-/	.	4f\	.	4D\	.	4f/	.	.
=88	=88	=88	=88	=88	=88	=88	=88	=88	=88	=88	=88	=88	=88	=88	=88	=88	=88
4E-\	Deus	.	4B-\	-us	4e-\	-us	4g\	-us	4G/	.	4e-\	.	4E-\	.	4e-/	.	1ryy
4r	.	.	4r	.	4r	.	4r	.	4r	.	4r	.	4EE-/	.	4g/	.	.
2r	.	.	2r	.	2r	.	2r	.	2r	.	2r	.	2r	.	4a-X/	.	.
.	.	.	.	.	.	.	.	.	.	.	.	.	.	.	4f/	.	.
=89	=89	=89	=89	=89	=89	=89	=89	=89	=89	=89	=89	=89	=89	=89	=89	=89	=89
2E-\	par-	.	2B-\	Pi-	2g\	Pi-	2ee-\	Pi-	2e-\	.	2g\	.	2E-\	.	2g/	.	1ryy
2E-\	-ce	.	2B-\	-e	2g\	-e	2ee-\	-e	8g\L	.	8b-\L	.	4EE-/	.	8b-\L	.	.
.	.	.	.	.	.	.	.	.	8e-\	.	8g\	.	.	.	8g\	.	.
.	.	.	.	.	.	.	.	.	8g\	.	8b-\	.	4E-\	.	8b-\	.	.
.	.	.	.	.	.	.	.	.	8e-\J	.	8g\J	.	.	.	8g\J	.	.
=90	=90	=90	=90	=90	=90	=90	=90	=90	=90	=90	=90	=90	=90	=90	=90	=90	=90
4B-\	De-	.	2B-\	Je-	4.f\	Je-	4.dd\	Je-	4.B-/	.	4.f\	.	4BB-/	.	4.f/	.	1ryy
4BB-/	-us	.	.	.	.	.	.	.	.	.	.	.	4B-\	.	.	.	.
.	.	.	.	.	16g\LL	-su	16ee-\LL	.	16e-\LL	.	16g\LL	.	.	.	16g/LL	.	.
.	.	.	.	.	16a-\JJ	.	16ff\JJ	.	16f\JJ	.	16a-\JJ	.	.	.	16a-/JJ	.	.
2E-\	Pi-	.	2B-\	-su	2g\	.	2ee-\	-su	2e-\	.	2g\	.	4E-\	.	2g/	.	.
.	.	.	.	.	.	.	.	.	.	.	.	.	4EE-/	.	.	.	.
=91	=91	=91	=91	=91	=91	=91	=91	=91	=91	=91	=91	=91	=91	=91	=91	=91	=91
2.E-\	-e	.	2.c\	Do-	2.a-\	Do-	2.cc\	Do-	2.E-/	.	2.e-\	.	2AA-/	.	2.a-\	.	1ryy
.	.	.	.	.	.	.	.	.	.	.	.	.	4A-\	.	.	.	.
4E-\	Je-	.	4e-\	-mi-	4a-\	-mi-	8ee-\L	-mi-	4E-/	.	4e-\	.	4AA-/	.	8cc\L	.	.
.	.	.	.	.	.	.	8cc\J	-ne	.	.	.	.	.	.	8a-\J	.	.
=92	=92	=92	=92	=92	=92	=92	=92	=92	=92	=92	=92	=92	=92	=92	=92	=92	=92
.	.	.	.	.	.	.	8qqcc/	.	.	.	.	.	.	.	8qqa-/	.	.
2E-\	-su	.	2e-\	-ne	2g\	-ne	2b-\	Do-	2E-/	.	2e-\	.	4E-\	.	2g/	.	1ryy
.	.	.	.	.	.	.	.	.	.	.	.	.	4EE-/	.	.	.	.
2r	.	.	2r	.	2r	.	4ee-\	.	2r	.	2r	.	2r	.	2r	.	.
.	.	.	.	.	.	.	4ee-\	-na	.	.	.	.	.	.	.	.	.
=93	=93	=93	=93	=93	=93	=93	=93	=93	=93	=93	=93	=93	=93	=93	=93	=93	=93
2E-\	.	.	2B-\	Do-	2g\	e-	2ee-\	e-	1G	.	1e-	.	4EE-/	.	8G/L	.	1ryy
.	.	.	.	.	.	.	.	.	.	.	.	.	.	.	8B-/	.	.
.	.	.	.	.	.	.	.	.	.	.	.	.	4GG/	.	8G/	.	.
.	.	.	.	.	.	.	.	.	.	.	.	.	.	.	8B-/J	.	.
*	*	*	*	*	*	*	*	*	*	*	*	*	*	*	*tremolo	*	*
2E-\	.	.	2B-\	-na	8a-\L	-is	8ff\L	-is	.	.	.	.	4BB-/	.	8A-/L	.	.
.	.	.	.	.	8g\	.	8ee-\	.	.	.	.	.	.	.	8B-/	.	.
.	.	.	.	.	8f\	.	8dd\	.	.	.	.	.	4E-\	.	8A-/	.	.
.	.	.	.	.	8g\J	.	8ee-\J	.	.	.	.	.	.	.	8B-/J	.	.
=94	=94	=94	=94	=94	=94	=94	=94	=94	=94	=94	=94	=94	=94	=94	=94	=94	=94
2.BB-/	Do-	.	2.B-\	e-	2f\	Re-	2dd\	Re-	1B-	.	1f	.	4BB-/	.	8F/L	.	1ryy
.	.	.	.	.	.	.	.	.	.	.	.	.	.	.	8d/	.	.
.	.	.	.	.	.	.	.	.	.	.	.	.	4B-\	.	8F/	.	.
.	.	.	.	.	.	.	.	.	.	.	.	.	.	.	8d/J	.	.
.	.	.	.	.	8g\L	-qui-	8ee-\L	-qui-	.	.	.	.	4BB-/	.	8F/L	.	.
.	.	.	.	.	8f\	.	8dd\	.	.	.	.	.	.	.	8d/	.	.
4BB-/	-mi-	.	4B-\	.	8e-\	.	8cc\	.	.	.	.	.	4B-\	.	8F/	.	.
.	.	.	.	.	8f\J	.	8dd\J	.	.	.	.	.	.	.	8d/J	.	.
=95	=95	=95	=95	=95	=95	=95	=95	=95	=95	=95	=95	=95	=95	=95	=95	=95	=95
2E-\	-ne	.	2B-\	-is	2g\	-em	2ee-\	-em	1e-	.	1g	.	4E-\	.	8G/L	.	1ryy
.	.	.	.	.	.	.	.	.	.	.	.	.	.	.	8B-/	.	.
.	.	.	.	.	.	.	.	.	.	.	.	.	4EE-/	.	8G/	.	.
.	.	.	.	.	.	.	.	.	.	.	.	.	.	.	8B-/J	.	.
2r	.	.	2r	.	2r	.	2r	.	.	.	.	.	4E-\	.	8G/L	.	.
.	.	.	.	.	.	.	.	.	.	.	.	.	.	.	8B-/	.	.
.	.	.	.	.	.	.	.	.	.	.	.	.	4G\	.	8G/	.	.
.	.	.	.	.	.	.	.	.	.	.	.	.	.	.	8B-/J	.	.
=96	=96	=96	=96	=96	=96	=96	=96	=96	=96	=96	=96	=96	=96	=96	=96	=96	=96
2B-\	e-	.	2B-\	Re-	2f\	Do-	2dd\	Do-	2e-\	.	2a-\	.	4B-\	.	8A-/L	.	1ryy
.	.	.	.	.	.	.	.	.	.	.	.	.	.	.	8B-/	.	.
.	.	.	.	.	.	.	.	.	.	.	.	.	4BB-/	.	8A-/	.	.
.	.	.	.	.	.	.	.	.	.	.	.	.	.	.	8B-/J	.	.
2BB-/	-is	.	2B-\	-qui-	2f\	-na	2dd\	-na	2B-/	.	2f\	.	4B-\	.	8A-/L	.	.
.	.	.	.	.	.	.	.	.	.	.	.	.	.	.	8B-/	.	.
.	.	.	.	.	.	.	.	.	.	.	.	.	4BB-/	.	8A-/	.	.
.	.	.	.	.	.	.	.	.	.	.	.	.	.	.	8B-/J	.	.
=97	=97	=97	=97	=97	=97	=97	=97	=97	=97	=97	=97	=97	=97	=97	=97	=97	=97
2E-\	Re-	.	2B-\	.	2g\	e-	2ee-\	e-	2e-\	.	2g\	.	4E-\	.	8G/L	.	1ryy
.	.	.	.	.	.	.	.	.	.	.	.	.	.	.	8B-/	.	.
.	.	.	.	.	.	.	.	.	.	.	.	.	4BB-/	.	8G/	.	.
.	.	.	.	.	.	.	.	.	.	.	.	.	.	.	8B-/J	.	.
2E-\	-qui-	.	2B-\	-em	2g\	-is	2ee-\	-is	2G/	.	2e-\	.	4GG/	.	8G/L	.	.
.	.	.	.	.	.	.	.	.	.	.	.	.	.	.	8B-/	.	.
.	.	.	.	.	.	.	.	.	.	.	.	.	4EE-/	.	8G/	.	.
.	.	.	.	.	.	.	.	.	.	.	.	.	.	.	8B-/J	.	.
=98	=98	=98	=98	=98	=98	=98	=98	=98	=98	=98	=98	=98	=98	=98	=98	=98	=98
2.BB-/	-em	.	2.d\	Do-	2.f\	Re-	2.ff\	Re-	4r	.	4r	.	4BB-/	.	8F/L	.	1ryy
.	.	.	.	.	.	.	.	.	.	.	.	.	.	.	8d/	.	.
.	.	.	.	.	.	.	.	.	4B-/	.	4f\	.	4B-\	.	8F/	.	.
.	.	.	.	.	.	.	.	.	.	.	.	.	.	.	8d/J	.	.
.	.	.	.	.	.	.	.	.	4B-/	.	4f\	.	4BB-/	.	8F/L	.	.
.	.	.	.	.	.	.	.	.	.	.	.	.	.	.	8d/	.	.
4BB-/	.	.	4d\	-na	4f\	-qui-	4ff\	-qui-	4B-/	.	4f\	.	4B-\	.	8F/	.	.
.	.	.	.	.	.	.	.	.	.	.	.	.	.	.	8d/J	.	.
*	*	*	*	*	*	*	*	*	*	*	*	*	*	*	*Xtremolo	*	*
=99	=99	=99	=99	=99	=99	=99	=99	=99	=99	=99	=99	=99	=99	=99	=99	=99	=99
2E-\	Do-	.	2e-\	e-	2g\	-em	2gg\	-em	2e-\	.	2g\	.	4E-\	.	4e-/	.	1ryy
.	.	.	.	.	.	.	.	.	.	.	.	.	4EE-/	.	4b-\	.	.
4A-\	.	.	4c\	.	4b-\	e-	4aa-\	e-	4r	.	2a-\	.	4AA-/	.	4cc\	.	.
4A-\	-na	.	4c\	-is	4a-\	-is	4ff\	-is	4f\	.	.	.	4A-\	.	4a-\	.	.
=100	=100	=100	=100	=100	=100	=100	=100	=100	=100	=100	=100	=100	=100	=100	=100	=100	=100
2B-\	e-	.	2B-\	Re-	2g\	Re-	2ee-\	Re-	2e-\	.	2g\	.	2B-\	.	2g/	.	1ryy
2BB-/	.	.	2B-\	-qui-	2f\	-qui-	2dd\	-qui-	2B-/	.	2f\	.	2BB-/	.	2f/	.	.
=101	=101	=101	=101	=101	=101	=101	=101	=101	=101	=101	=101	=101	=101	=101	=101	=101	=101
2E-\	is	.	2B-\	.	2g\	-em	2ee-\	-em	2e-\	.	2g\	.	2E-\	p	2g/	.	1ryy
!	!	!	!	!	!	!	!	!	!	!LO:DY:a	!	!LO:DY:a	!	!	!	!	!
2r	.	.	4e-\	-em	4g\	e-	4b-\	e-	4G/	p	4e-\	p	4E-\	.	4g/	.	.
.	.	.	4e-\	.	4g\	-is	4b-\	-is	4G/	.	4e-\	.	4EE-/	.	4ee-\	.	.
=102	=102	=102	=102	=102	=102	=102	=102	=102	=102	=102	=102	=102	=102	=102	=102	=102	=102
!	!	!LO:DY:a	!	!	!	!	!	!	!	!	!	!	!	!	!	!	!
1BB-	Requi-	p	2.d\	Re-	2.f\	Re-	1b-	Requi-	2.B-/	.	2.g\	.	1BB-	.	2.dd\	.	1ryy
.	.	.	8e-\L	-qui-	8g\L	-qui-	.	.	8e-\L	.	8g\L	.	.	.	(8ee-\L	.	.
.	.	.	8f\J	-em	8a-\J	.	.	.	8f\J	.	8a-\J	.	.	.	8ff\J)	.	.
=103	=103	=103	=103	=103	=103	=103	=103	=103	=103	=103	=103	=103	=103	=103	=103	=103	=103
.	.	.	8qqf;/	.	.	.	.	.	.	.	.	.	.	.	.	.	.
1E-;	-em	.	1e-;	.	1g;	-em	1b-;	-em	1e-	.	1g;	.	1EE-	.	1ee-;	.	1ryy
==	==	==	==	==	==	==	==	==	==	==	==	==	==	==	==	==	==
*-	*-	*-	*-	*-	*-	*-	*-	*-	*-	*-	*-	*-	*-	*-	*-	*-	*-
!!title: @{OTL};
!!!RDF**kern: > = above
!!!RDF**kern: < = below
!!!RDF**kern: | = vertical stroke
!!!RDF**kern: N = linked
!!!RDF**kern: i = editorial accidental
!!!RDF**kern: l = terminal long
!!!AIN: 1 alto 1 bass 2 clars 1 cor 2 empty 1 tenor 1 vox
!!!ENC: Andrzej Gręziak
!!!END: 2020-09-19
!!!EED: Wojciech Jakubiak-Danek
!!!EST: 2022-01-31
!!!URL-scan: http://repozytorium.nifc.pl/skany/pl-cz-nut--iii-555
!!!ONB-nifc: UWAGA: części Requiem: Requiem, Kyrie, Dies irae, Qui Mariam, Domine Jesu Christe, Sanctus, Pleni sunt, Benedictus, Agnus Dei, Lux aeterna
